X: 12766
T: Father Tom's Wager
R: jig
M: 6/8
K: Gmajor
Bc|:dge dBG|AEF GDB,|G,B,D GBd|cBc ABc|
dge dBG|AEF GDB,|G,B,D GBd|1 cAF GBc:|2 cAF Gdc||
Bdg a2g|fed cAF|DGG FAA|GBB ABc|
Bdg a2 g|fed ^cde|f2d cAF|1 AGF Gdc:|2 AGF GBc||

